X:1
T:Title
%%score { ( 1 2 ) | ( 3 4 ) }
L:1/8
Q:1/4=100
M:4/4
K:Bb
V:1 treble nm="Grand Piano"
V:2 treble 
V:3 bass 
V:4 bass 
V:1
 [DF]2 [DB]2 [DB]2 AG | [DF]2 [_D=E]2 [=DF]2 z2 | [DF]2 [DB]2 [DB]2 [DA]B | d2 c2 c2 z2 | %4
w: John~R.~Bryant * * * *||||
 d2 d2 e2 [Fd]2 | [Fc]2 [FB]2 [FA]2 G2 | FGAB c2 A2 | [DB]6 z2 | .F2 z2 B4 | FGAB c4 | e4 c4 | %11
w: |||||||
 .[B,DF]2 [DB][Ec] [Fd]4 | f4 d4 | [Ge][Gd][Gc][GB] [FA]2 G2 | FGAB c2 A2 | [DB]6 z2 |] %16
w: |||||
V:2
 z4 z2 D2 | x8 | x8 | x8 | x8 | x8 | x8 | x8 | d-[Fd-][Fd-][Fd] D2 D2 | x8 | z FFF z2 E2 | x8 | %12
 z2 F2 z2 _A2 | x8 | x8 | x8 |] %16
V:3
 [B,,B,]2 [B,,F,]2 [B,,F,]2 [B,,F,]2 | [B,,B,]2 [B,,B,]2 [B,,B,]2 z2 | %2
 [B,,B,]2 [B,,F,]2 [B,,F,]2 z E | [F,B,F]2 [F,A,F]2 [F,A,F]2 z2 | %4
 [B,F]2 [B,F]2 [B,G]2[K:bass] [B,,B,]2 | [C,A,]2 [D,B,]2 z2 E2 | %6
 [F,A,C][F,B,D][F,CF][F,DF] [F,EF]2 [F,CE]2 | [B,,B,]6 z2 | %8
 [B,,B,][B,,B,][B,,B,][B,,B,] [B,,F,]2 [B,,F,]2 | z2 [F,E]2 z4 | %10
 [F,A,F][F,C][F,C][F,C] [F,A,F]2 [F,A,]2 | z F [B,,B,]2 [B,,B,]4 | %12
 [B,DF]2 [B,D]2 [B,_A]2[K:bass] B,2 | [E,B,][E,B,][E,B,][E,B,] z2 E2 | %14
 [F,A,C][F,B,D][F,CF][F,DF] [F,EF]2 [F,CE]2 | [B,,B,]6 z2 |] %16
V:4
 x8 | x8 | z4 z2 [B,,F,]2 | x8 | x6[K:bass] x2 | z4 [E,B,]4 | x8 | x8 | x8 | [F,E]2 z G, [F,A,E]4 | %10
 x8 | B,,2 z2 z4 | x6[K:bass] x2 | z4 [E,B,]4 | x8 | x8 |] %16

